X: 12
T: Brian Boru's March
Z: Soom
S: https://thesession.org/tunes/271#setting54146
R: jig
M: 6/8
L: 1/8
K: Amin
ed|:cAA Aed|cAA Adc|BGG Gdc|BGG Ged|
cAA Aed|cAA A3|Acd e2 d|1 cAA Aed:|2 cAA A2 G||
|:Acd e2 d|e2 d e2d|GBc d2 B|d2 B dBG|Acd e2 d|
e2 d e2d|cBA e2d |1cAA A3 :|2 cAA A2B||
|:cBA a2 a|cBA a2 a|BAG g2 g|BAG g2 g|
cBA a2 a|cBA a3|Acd e2d|1cAA A2B:|2cAA A3||

%-------------------- TUNE SEPARATOR --------------------%

